!!!COM: Bach, Johann Sebastian
!!!CDT: 1685/02/21/-1750/07/28/
!!!OPR: Sonata for solo violin, No. 2 in A minor
!!!OTL: Movement 4: Allegro
!!!ODT: 1720///
!!!SCT: BWV 1003
**kern	**dynam
*>[A,A,B,B]	*>[A,A,B,B]
*>norep[A,B]	*>norep[A,B]
=1-	=1-
*>A	*>A
*Ivioln	*Ivioln
*clefG2	*clefG2
*k[]	*k[]
*met(C)	*met(C)
*M4/4	*M4/4
*MM100	*MM100
16a\LL	f
16cc\	.
16ee\	.
16aa\JJ	.
16ee\LL	.
16dd\	.
16cc\	.
16b\JJ	.
16a\LL	p
16cc\	.
16ee\	.
16aa\JJ	.
16ee\LL	.
16dd\	.
16cc\	.
16b\JJ	.
=2	=2
(16a\LL	f
32cc\L	.
32dd\J	.
16ee\)	.
16e\JJ	.
16a\LL	.
16cc\	.
16ee\	.
16g#\JJ	.
(16a\LL	p
32cc\L	.
32dd\J	.
16ee\)	.
16e\JJ	.
16a\LL	.
16cc\	.
16ee\	.
16g#\JJ	.
=3	=3
16a\LL	f
32b\L	.
32cc\J	.
16dd\	.
32cc\L	.
32b\JJJ	.
16cc\LL	.
32dd\L	.
32ee\J	.
16ff\	.
32ee\L	.
32dd\JJJ	.
16ee\LL	.
16aa\	.
16ff\	.
16dd\JJ	.
16ee\LL	.
16dd\	.
16cc\	.
16b\JJ	.
=4	=4
16a\LL	p
32b\L	.
32cc\J	.
16dd\	.
32cc\L	.
32b\JJJ	.
16cc\LL	.
32dd\L	.
32ee\J	.
16ff\	.
32ee\L	.
32dd\JJJ	.
16ee\LL	.
16aa\	.
16ff\	.
16dd\JJ	.
16ee\LL	.
16dd\	.
16cc\	.
16b\JJ	.
=5	=5
16a\LL	f
16cc\	.
16ee\	.
16aa\JJ	.
16ccc\LL	.
16ee\	.
16cc\	.
16a\JJ	.
16g#\LL	.
16b\	.
16ee\	.
16gg#\JJ	.
16bb\LL	.
16dd\	.
16cc\	.
16b\JJ	.
=6	=6
16a\LL	p
16cc\	.
16ee\	.
16aa\JJ	.
16ccc\LL	.
16ee\	.
16cc\	.
16a\JJ	.
16g#\LL	.
16b\	.
16ee\	.
16gg#\JJ	.
16bb\LL	.
16dd\	.
16cc\	.
16b\JJ	.
=7	=7
16a\LL	f
16cc\	.
16ee\	.
16gg\JJ	.
16ff\LL	.
16cc\	.
16b\	.
16a\JJ	.
16g\LL	.
16b\	.
16dd\	.
16ff\JJ	.
16ee\LL	.
16b\	.
16a\	.
16g\JJ	.
=8	=8
16f\LL	.
16a\	.
16cc\	.
16ee\JJ	.
16dd\LL	.
16cc\	.
16b\	.
16a\JJ	.
16g#\LL	.
16ee\	.
16b\	.
16g#\JJ	.
16e/LL	.
16f/	.
16d/	.
16e/JJ	.
=9	=9
16c#/LL	.
16a/	.
16ee/	.
16g/JJ	.
16f/LL	.
16d/	.
16f/	.
16c/JJ	.
16B/LL	.
16g/	.
16dd/	.
16f/JJ	.
16e/LL	.
16c/	.
16e/	.
16B/JJ	.
=10	=10
16A/LL	.
16f/	.
16cc/	.
16e/JJ	.
16d/LL	.
16B/	.
16d/	.
16A/JJ	.
16G#/LL	.
16e/	.
16b/	.
16d/JJ	.
16c/LL	.
16A/	.
16d/	.
16B/JJ	.
=11	=11
16e/LL	.
16c/	.
16A/	.
16c/JJ	.
16e/LL	.
16a/	.
16cc/	.
16e/JJ	.
16d#/LL	.
16cc/	.
16b/	.
16a/JJ	.
16ff#/LL	.
16a/	.
16g/	.
16f#/JJ	.
=12	=12
16e/LL	.
16B/	.
16G/	.
16B/JJ	.
16e/LL	.
16g/	.
16b/	.
16d/JJ	.
16c#/LL	.
16b/	.
16a/	.
16g/JJ	.
16ee\LL	.
16gg\	.
16ff#\	.
16ee\JJ	.
=13	=13
16dd#\LL	.
16a\	.
16f#\	.
16a\JJ	.
16dd#\LL	.
16ff#\	.
16aa\	.
16cc\JJ	.
16b/LL	.
16f#/	.
16d#/	.
16f#/JJ	.
16b\LL	.
16dd#\	.
16ff#\	.
16aa\JJ	.
=14	=14
16gg\LL	.
(32bb\L	.
32aa\J	.
16gg\)	.
16ff#\JJ	.
16ee\LL	.
16ccc\	.
(16a\	.
32b\L	.
32cc\JJJ)	.
16c\LL	.
(32aa\L	.
32gg\J	.
16ff#\)	.
16ee\JJ	.
16dd\LL	.
16bb\	.
(16g\	.
32a\L	.
32b\JJJ)	.
=15	=15
16c\LL	.
(32gg\L	.
32ff#\J	.
16ee\)	.
16dd\JJ	.
16cc\LL	.
(32aa\L	.
32gg\J	.
16ff#\)	.
16ee\JJ	.
16dd#\LL	.
(32ff#\L	.
32dd#\J	.
16b\)	.
16a\JJ	.
16g\LL	.
16ee\	.
16f#\	.
16dd\JJ	.
=16	=16
16e/LL	.
(32dd/L	.
32b/J	.
16g/)	.
16f/JJ	.
16e/LL	.
16cc/	.
16d/	.
16b/JJ	.
16c/LL	.
(32b/L	.
32g/J	.
16e/)	.
16d/JJ	.
16c/LL	.
16a/	.
16B/	.
16g/JJ	.
=17	=17
16A/LL	.
32B/L	.
32c/J	.
16d/	.
32c/L	.
32B/JJJ	.
16c/LL	.
32d/L	.
32e/J	.
16f/	.
32e/L	.
32d/JJJ	.
16e/LL	.
32f#/L	.
32g/J	.
16a/	.
32g/L	.
32f#/JJJ	.
16g/LL	.
32a/L	.
32b/J	.
16cc/	.
32b/L	.
32a/JJJ	.
=18	=18
(16ff#/LL	.
16cc/	.
16d#/)	.
16cc/JJ	.
16b/LL	.
16a/	.
16g/	.
16f#/JJ	.
16g/LL	.
16a/	.
16b/	.
16cc/JJ	.
*^	*
8.f#/L	4B/	.
16e/Jk	.	.
*v	*v	*
=19	=19
16e/LL	.
(32c#/L	.
32d/J	.
16e/)	.
16a/JJ	.
16f#/LL	.
(32d#/L	.
32e/J	.
16f#/)	.
16b/JJ	.
16g/LL	.
(32e/L	.
32f#/J	.
16g/)	.
16cc/JJ	.
16a/LL	.
(32f#/L	.
32g/J	.
16a/)	.
16dd/JJ	.
=20	=20
16b\LL	.
16g\	.
16b\	.
16dd#\JJ	.
16ee\LL	.
16gg\	.
16bb\	.
16dd\JJ	.
16cc\LL	.
16a\	.
16cc\	.
16ee\JJ	.
16ff\LL	.
16aa\	.
16ccc\	.
16ee\JJ	.
=21	=21
16b\LL	.
16dd#\	.
16ff#\	.
16bb\JJ	.
(16ff#\LL	.
16ee\	.
16dd#\	.
16cc#\JJ)	.
16b\LL	.
16dd#\	.
16ff#\	.
16aa\JJ	.
(16ff#\LL	.
16ee\	.
16dd#\	.
16cc#\JJ)	.
=22	=22
16b\LL	.
16dd#\	.
16ee\	.
16gg\JJ	.
(16ee\LL	.
16dd\	.
16cc\	.
16b\JJ)	.
16a\LL	.
16b\	.
16cc\	.
16ff#\JJ	.
(16cc\LL	.
16b\	.
16a\	.
16g\JJ)	.
=23	=23
16f#/LL	.
16g/	.
16a/	.
16cc/JJ	.
(16a/LL	.
16g/	.
16f#/	.
16e/JJ)	.
16d#/LL	.
16f#/	.
16a/	.
16cc/JJ	.
(16b/LL	.
16a/	.
16g/	.
16f#/JJ)	.
=24	=24
16g/LL	.
(32b/L	.
32g/J	.
16e/)	.
16B/JJ	.
16f#/LL	.
16a/	.
16ee/	.
16dd#/JJ	.
2ee\	.
=25:|!|:	=25:|!|:
*>B	*>B
16e\LL	.
16ee\	.
16gg\	.
16bb\JJ	.
16gg\LL	.
16ee\	.
16dd#\	.
16ee\JJ	.
16e\LL	p
16ee\	.
16gg\	.
16bb\JJ	.
16gg\LL	.
16ee\	.
16dd#\	.
16ee\JJ	.
=26	=26
16e/LL	f
(32g/L	.
32a/J	.
16b/)	.
16B/JJ	.
16e/LL	.
16g/	.
16b/	.
16d#/JJ	.
16e/LL	p
(32g/L	.
32a/J	.
16b/)	.
16B/JJ	.
16e/LL	.
16g/	.
16b/	.
16d#/JJ	.
=27	=27
16e/LL	f
32f#/L	.
32g/J	.
16a/	.
32g/L	.
32f#/JJJ	.
16g/LL	.
32a/L	.
32b/J	.
16cc/	.
32b/L	.
32a/JJJ	.
16b/LL	.
32g/L	.
32a/J	.
16b/	.
32cc#/L	.
32dd#/JJJ	.
(16ee/LL	.
32b/L	.
32a/J	.
16g/)	.
16f#/JJ	.
=28	=28
16e/LL	p
32f#/L	.
32g/J	.
16a/	.
32g/L	.
32f#/JJJ	.
16g/LL	.
32a/L	.
32b/J	.
16cc/	.
32b/L	.
32a/JJJ	.
16b/LL	.
32g/L	.
32a/J	.
16b/	.
32cc#/L	.
32dd#/JJJ	.
16ee/LL	.
(32b/L	.
32a/J	.
16g/)	.
16f#/JJ	.
=29	=29
16e/LL	f
16g/	.
16b/	.
16ee/JJ	.
16gg\LL	.
16bb\	.
16gg\	.
16ee\JJ	.
16dd#\LL	.
16ff#\	.
16dd#\	.
16b\JJ	.
16f#/LL	.
16a/	.
16g/	.
16f#/JJ	.
=30	=30
16e/LL	p
16g/	.
16b/	.
16ee/JJ	.
16gg\LL	.
16bb\	.
16gg\	.
16ee\JJ	.
16dd#\LL	.
16ff#\	.
16dd#\	.
16b\JJ	.
16f#/LL	.
16a/	.
16g/	.
16f#/JJ	.
=31	=31
16e/LL	f
16g/	.
16b/	.
16dd/JJ	.
16cc/LL	.
16g/	.
16f#/	.
16e/JJ	.
16d/LL	.
16f#/	.
16a/	.
16cc/JJ	.
16b/LL	.
16f#/	.
16e/	.
16d/JJ	.
=32	=32
16c/LL	.
16e/	.
16g/	.
16b/JJ	.
16a/LL	.
16g/	.
16f#/	.
16e/JJ	.
16d#/LL	.
16b/	.
16f#/	.
16d#/JJ	.
16B/LL	.
16c/	.
16A/	.
16B/JJ	.
=33	=33
16G/LL	.
(32e/L	.
32f#/J	.
16g/)	.
16b/JJ	.
16ee\LL	.
16ff#\	.
16dd\	.
16ee\JJ	.
16cc\LL	.
(32ee\L	.
32dd\J	.
16cc\)	.
16b\JJ	.
16a\LL	.
16b\	.
16g\	.
16a\JJ	.
=34	=34
16f#/LL	.
(32d/L	.
32e/J	.
16f#/)	.
16a/JJ	.
16dd\LL	.
16ee\	.
16cc\	.
16dd\JJ	.
16b\LL	.
(32g\L	.
32a\J	.
16b\)	.
16dd\JJ	.
16gg\LL	.
16aa\	.
16ff#\	.
16gg\JJ	.
=35	=35
16ee\LL	.
16gg\	.
16ee\	.
16b\JJ	.
16cc\LL	.
16e\	.
16g\	.
16cc\JJ	.
16dd\LL	.
16gg\	.
16dd\	.
16a\JJ	.
16b/LL	.
16d/	.
16g/	.
16b/JJ	.
=36	=36
16cc\LL	.
16gg\	.
16cc\	.
16a\JJ	.
16d\LL	.
(32ff#\L	.
32gg\J	.
16aa\)	.
16cc\JJ	.
16b\LL	.
16gg\	.
16dd\	.
16b\JJ	.
16g/LL	.
16a/	.
16f/	.
16g/JJ	.
=37	=37
16e\LL	.
16cc\	.
16gg\	.
16b-\JJ	.
16a/LL	.
16f/	.
16a/	.
16e/JJ	.
16d/LL	.
16b/	.
16ff/	.
16a/JJ	.
16g/LL	.
16e/	.
16g/	.
16d/JJ	.
=38	=38
16c/LL	.
16a/	.
16ee/	.
16g/JJ	.
16f/LL	.
16d/	.
16f/	.
16c/JJ	.
16B/LL	.
16g/	.
16dd/	.
16f/JJ	.
16e/LL	.
16c/	.
16f/	.
16d/JJ	.
=39	=39
(16g/LL	.
16e/	.
16c/)	.
16e/JJ	.
16g/LL	.
16e/	.
16a/	.
16f/JJ	.
(16b-/LL	.
16g/	.
16e/)	.
16g/JJ	.
16b-/LL	.
16g/	.
16cc/	.
16g/JJ	.
=40	=40
16a\LL	.
16f\	.
16a\	.
16cc\JJ	.
16ff\LL	.
16dd\	.
16aa\	.
16cc\JJ	.
16b\LL	.
16g\	.
16cc\	.
16dd\JJ	.
16gg\LL	.
16ee\	.
16bb\	.
16dd\JJ	.
=41	=41
16cc\LL	.
16a\	.
16cc\	.
16ee\JJ	.
16aa\LL	.
16ff\	.
16ccc\	.
16ee\JJ	.
16dd\LL	.
16b\	.
16dd\	.
16gg\JJ	.
16bb\LL	.
16gg\	.
16ddd\	.
16ff\JJ	.
=42	=42
16ee\LL	.
32gg\L	.
32ff\J	.
16ee\	.
32ff\L	.
32gg\JJJ	.
16aa\LL	.
32b\L	.
32cc\J	.
16dd\	.
32ee\L	.
32ff\JJJ	.
16gg\LL	.
32a\L	.
32b\J	.
16cc\	.
32dd\L	.
32ee\JJJ	.
16ff\LL	.
32g\L	.
32a\J	.
16b\	.
32cc\L	.
32dd\JJJ	.
=43	=43
16ee/LL	.
32c/L	.
32d/J	.
16e/	.
32f/L	.
32g/JJJ	.
16a/LL	.
16f/	.
16dd/	.
16f/JJ	.
(16G/LL	.
16f/	.
16b/)	.
16dd/JJ	.
(16cc/LL	.
16b/)	.
(16a/	.
16g/JJ)	.
=44	=44
(16f/LL	.
32e/L	.
32d/J	.
16e/)	.
16cc/JJ	.
(16G/LL	.
16d/	.
16cc/)	.
16b/JJ	.
(16cc/LL	.
32ee/L	.
32cc/J	.
16g/)	.
16f/JJ	.
16e/LL	.
(32g/L	.
32e/J	.
16c/)	.
16B-/JJ	.
=45	=45
(16A/LL	.
16g/	.
16cc#/)	.
16g/JJ	.
16cc#/LL	.
16g/	.
16ee/	.
16g/JJ	.
16f/LL	.
(32dd/L	.
32a/J	.
16f/)	.
16e/JJ	.
(16d/LL	.
32a/L	.
32f/J	.
16d/)	.
16c/JJ	.
=46	=46
(16B/LL	.
16a/	.
16dd#/)	.
16a/JJ	.
16dd#\LL	.
16a\	.
16ff#\	.
16a\JJ	.
16g#/LL	.
(32ee/L	.
32b/J	.
16g#/)	.
16f#/JJ	.
16e/LL	.
(32b/L	.
32g#/J	.
16e/)	.
16d/JJ	.
=47	=47
(32c/LLL	.
32ee/	.
32dd/	.
32cc/J)	.
(16b/	.
32cc/L	.
32dd/JJJ	.
(16cc/LL)	.
32b/L	.
32a/J)	.
(16g#/	.
32a/L	.
32b/JJJ)	.
(32c#/LLL	.
32a/	.
32g/	.
32f/J)	.
(16e/	.
32f/L	.
32g/JJJ)	.
(16f/LL	.
32e/L	.
32d/J)	.
(16c#/	.
32d/L	.
32e/JJJ)	.
=48	=48
16d\LL	.
(32ff\L	.
32ee\J	.
16dd\)	.
16cc\JJ	.
16b\LL	.
16dd\	.
(16g\	.
32a\L	.
32b\JJJ)	.
16c\LL	.
(32ee\L	.
32dd\J	.
16cc\)	.
16b\JJ	.
16a/LL	.
16cc/	.
(16f/	.
32g/L	.
32a/JJJ)	.
=49	=49
16B\LL	.
(32dd\L	.
32cc\J	.
16b\)	.
16a\JJ	.
16g#\LL	.
16dd\	.
16bb\	.
16dd\JJ	.
(16cc\LL	.
32a\L	.
32b\J	.
16cc\)	.
16ff\JJ	.
16b\LL	.
(32g\L	.
32a\J	.
16b\)	.
16ee\JJ	.
=50	=50
16a\LL	.
(32f\L	.
32g\J	.
16a\)	.
16cc#\JJ	.
(16dd\LL	.
32b\L	.
32cc\J	.
16dd\)	.
16ff\JJ	.
(16gg#\LL	.
32ee\L	.
32ff#\J	.
16gg#\)	.
16bb\JJ	.
(16ddd\LL	.
32bb\L	.
(32gg#\J)	.
16ee\	.
32gg#\L	.
32bb\JJJ)	.
=51	=51
16ccc\LL	.
(32eee\L	.
32ccc\J	.
16aa\)	.
16gg\JJ	.
16ff\LL	.
16ddd\	.
16ee\	.
16ccc\JJ	.
16dd\LL	.
(32ccc\L	.
32aa\J	.
16ff\)	.
16ee\JJ	.
16dd\LL	.
16bb\	.
16cc\	.
16aa\JJ	.
=52	=52
16b\LL	.
(32ff\L	.
32dd\J	.
16b\)	.
16a\JJ	.
16g#/LL	.
16dd/	.
16f#/	.
16dd/JJ	.
16e/LL	.
16g#/	.
16b/	.
16dd/JJ	.
(16ff\LL	.
32ee\L	.
32dd\J	.
16cc\)	.
16b\JJ	.
=53	=53
16cc/LL	.
16g#/	.
16a/	.
16d#/JJ	.
16e/LL	.
(32cc/L	.
32b/J	.
16a/)	.
16g#/JJ	.
16a/LL	.
(32f/L	.
32g/J	.
16a/)	.
16f/JJ	.
16e/LL	.
16d/	.
16c/	.
16B/JJ	.
=54	=54
(32c/LLL	.
32e/	.
32f#/	.
32g#/J	.
16a/)	.
16e/JJ	.
16d/LL	.
16c/	.
16B/	.
16A/JJ	.
(32B/LLL	.
32c/	.
32d/	.
32e/J	.
16f/)	.
16e/JJ	.
16d/LL	.
16b/	.
16ff/	.
16a/JJ	.
=55	=55
(32g#\LLL	.
32a\	.
32b\	.
32cc\J	.
16dd\)	.
16cc\JJ	.
(16b\LL	.
32gg#\L	.
32aa\J	.
16bb\)	.
16dd\JJ	.
(32cc\LLL	.
32ee\	.
32ff#\	.
32gg#\J	.
16aa\)	.
16cc\JJ	.
16e\LL	.
16b\	.
16aa\	.
16gg#\JJ	.
=56	=56
(16a\LL	p
16cc#\)	.
(16gg\	.
16ee\JJ)	.
(16a\LL	.
16dd\)	.
(16ff#\	.
16dd\JJ)	.
(16g#\LL	.
16dd\)	.
(16ff\	.
16dd\JJ)	.
(16g\LL	.
16cc#\)	.
(16ee\	.
16cc#\JJ)	.
=57	=57
(16f#\LL	.
16a\)	.
(16ee\	.
16a\JJ)	.
(16f\LL	.
16dd\)	.
(16aa\	.
16dd\JJ)	.
(16e\LL	.
16dd\	.
16bb\)	.
16aa\JJ	.
16gg#\LL	.
16ff#\	.
16ee\	.
16dd\JJ	.
=58	=58
16cc\LL	.
(32ee\L	.
32cc\J	.
16a\)	.
16e\JJ	.
16b\LL	.
16dd\	.
16aa\	.
16gg#\JJ	.
2A/	.
==:|!	==:|!
*-	*-
!!!ENC: Craig Stuart Sapp
!!!END: 2004/04/03/
